X:677
T:Mr. Thom
R:Strathspey
B:The Athole Collection
M:C
L:1/8
K:G Minor
d|B<G G>D B,<G, G,>B|(3AGF (3cBA f>cA>d|B<G G>D B,<G, G,>g|
f/e/d/c/ d/c/B/A/ B>GG:|
||d|g>dB>G b>gd>B|f>cA>F a>fc>A|g>dB>G b>gd>B|
c<e d/c/B/A/ B<G G>d|g>dB>G b>gd>B|f>cA>F a>fc>A|
dGG||
||D|G,>DB,>D G<d B>G|A,>FC>F A,<c A>F|G,>DB,>D G<d B>G|
c<A d/c/B/A/ B<G G>D|G,>DB,>D G<d B>G|A,>F C<F A,<c A>F|
B>dG>B D<GB,>D|C>ED>C B,G,G,||
|:d|(3BAG (3dcB b>gd>B|(3AGF (3cBA a>fc>A|1 (3BAG (3dcB b>gd>B|
c<e d/c/B/A/ B>GG:|2 d<bc<a B<gA<^f|g<e d/c/B/A/ B<GG||
